X:980
T:The Beauties of Ireland
B:O'Neill's 980
Z:Transcribed by Dan G. Petersen, dangp@post6.tele.dk
M:12/8
L:1/8
K:D
F2D DFD DFD DFD|E2A, A,EA, A,EA, A,EA,|F2D DFD DFD DFD|Bcd edc [1 d2B A2G:|[2 d2z d2z||
A|f2d def gag fgf|ecA AcA ecA AcA|f2d def gbg faf| ecA ABc [1 d2z d2z:|[2 d2B A2G|]


